X: 43019
T: Willy Taylor's High Tea
R: barndance
M: 4/4
K: Gmajor
GA|:B2Bc BAGA|B2 d2 e4|d2 g2 B2 d2|cBAG A2 GA|
B2Bc BAGA|B2 d2 e4|d2 g2 B2 G2|1 A4 G2 GA:|2 A4 G2 gf||
e2dc BAGA|B2 d2 e4|d2 g2 B2 d2|cBAG A2gf|
e2dc BAGA|B2 d2 e4|d2 g2 B2 G2|A4 G2 gf|
e2dc BAGA|B2 d2 e4|d2 g2 B2 d2|cBAG A2 GA|
B2Bc BAGA|B2 d2 e4|d2 g2 B2 G2|A4 G2z2||

